public/avatar/hat/198.svg

<svg xmlns:xlink="http://www.w3.org/1999/xlink" height="92.9" width="100.7" xmlns="http://www.w3.org/2000/svg"><g transform="translate(38.65 49.75)"><use height="32.55" transform="translate(-29.65 -4.35)" width="57.6" xlink:href="#a"/><use height="28.7" transform="translate(-26.95 -3.5)" width="52.6" xlink:href="#b"/><use height="25.6" transform="translate(-25.45 -2.85)" width="49.15" xlink:href="#c"/><use height="24" transform="translate(-24.6 -2.05)" width="47" xlink:href="#d"/><use height="19.2" transform="translate(-15.55 -8.15)" width="35.6" xlink:href="#e"/><use height="17.5" transform="translate(-14.7 -7.3)" width="34" xlink:href="#f"/><use height="6.65" transform="translate(-6 -1.15)" width="10.25" xlink:href="#g"/><use height="13.75" transform="translate(11.55 -4.4)" width="4.75" xlink:href="#h"/><use height="17.05" transform="translate(-14.45 -7.2)" width="33.15" xlink:href="#i"/></g><defs><use height="32.55" width="57.6" xlink:href="#j" id="a"/><use height="28.7" width="52.6" xlink:href="#k" id="b"/><use height="25.6" width="49.15" xlink:href="#l" id="c"/><use height="24" width="47" xlink:href="#m" id="d"/><use height="19.2" width="35.6" xlink:href="#n" id="e"/><use height="17.5" width="34" xlink:href="#o" id="f"/><use height="6.65" width="10.25" xlink:href="#p" id="g"/><use height="13.75" width="4.75" xlink:href="#q" id="h"/><use height="17.05" width="33.15" xlink:href="#r" id="i"/><path d="M1.15 8.9q.5-.85 1.8-1.05L5 8.1q1.15.6.65 1.7-.4.85-.6 3.15-.15 2.3-.9 2.75Q2.5 16.95.7 15.35q-.7-.65-.7-2 0-2.7 1.15-4.45M30.45.95q2 1.6 2 3.65l-.05.45-.9 2.3q-.9 1.8-.9 2.5l1.75.3q2.05.1 2.65.7.6.7.6 2.15 0 2.7-1.2 4.65-1.25 2-3.1 1.4-2.2-.7-4.45-5.8-2-4.4-2-6.3 0-5.8 2.5-6.8 1.6-.5 3.1.8" id="n" fill-rule="evenodd"/><path d="M4.05 8.6q-.45 1.05-.65 3.35-.2 1.95-.55 2.2-1.2.8-2.45-.3-.6-.55-.25-2.6.3-1.8.85-2.75.45-.75 1.9-.7 1.5.05 1.15.8m27.3 1.55q1.75.05 2.2.5.9.85-.05 4.05-.9 3.3-2.75 2.7-1.85-.6-4-5.3-1.9-4.25-1.9-6 0-5.2 1.95-6 1.3-.5 2.75 1.15 1.45 1.6 1.2 2.8l-1.2 2.75q-.9 1.85-.65 2.7.65.6 2.45.65" id="o" fill="#e42824" fill-rule="evenodd"/><path d="m1.6 9.15 1.55.75q1.55.9 1.6 1.5.15 3.15-.75 2.1-1.85-2-2.4-4.35m-.75-2-.7-2.6Q-.35 1.75.6.7q1.8-1.95 1.3 1.65-.7 4.3-1.05 4.8m.75.35Q1.5 7.1 3 3.25q-.8 2.7-.3 4l.4.8q-1.2.55-1.5-.55" id="q" fill="#9d0d00" fill-rule="evenodd"/><path d="M29.05 2.05q.4.85-.8 5.3 1.4-5.85-1.35-4.8-1.8.7-1.4 4.4.25 1.85.8 3.55-2.05-2-1.9-4.2.35-4.1 1.1-5.35.45-.7 1.65-.95.85-.2 1.9 2.05m-1.1 9.1 3.5.8q1 .25 1.2-1.4l.4 2.1q.35 1.5-.35 2.95Q32 17 31 17.05q.85-.25 1.2-1.25.4-1.05-.45-1.9l-3.8-2.75M3.6 8.1q-.3.9-.85 1-.85.15-1.25.55-.55.55-1.05 2.15-.35 1.05-.4.5-.2-1.15 1-3.95.3-.6 1.45-.5l1.1.25" id="r" fill="#f29ea7" fill-rule="evenodd"/><path d="M43.25 15.6q.1 3.15-1 5.2-.35-2.2-2.15-5.1l-1.7-2.45q1.4 3-.2 10.6-1.5-6.65-4.5-10.3l-3.2-2.85q-1.3 3.55-1.8 10l-2.45-6.45q-1.6 4.55-1.4 11.45-1.3-2.05-2.2-5.35l-.6-2.95-.6 1.4q-.65 1.85-.95 4.25-1.25-1.45-1.9-4.7l-.4-3q-1.05.3-2.35 3.95-.55-2.6.6-5.85l1.25-2.75q-1.25-.6-2.55.9-1.8 2.15-2.5 8.6-.35 3.2-.35 6l-1-1.45-1.1 6-.7-4.55q-2.55 5.05-4.55 6.35l1-5.15q-1 2-4.85 4.25 2.95-3.15 2.95-10.4l-4.05.7q3-1.5 6.55-11.2 1.7-4.55 5.6-5.5l6.65.2q1-3.3 4.95-4.8 3.85-1.4 5.85.45 3.15-1.8 6.3-.7 2.95 1.05 4.85 4.35 9.75-5.9 13.65 9.9.7 3.05 3.2 6.8-.6.1-3-2.15.7 4.65 2.7 6.9-.5.5-3.55-1.15.15 1.65-.9 4.25l-1.9-6.05-1.75 2.95q.45-2.1 0-5.45l-.6-2.95q.1 1.6-1.1 4.25-.1-2.65-1.9-7.1-1.95-4.8-3.45-4.65 1 2.3 1.1 5.3" fill-rule="evenodd" id="j"/><path d="M45.2 3.7q3.1 1.65 4.35 5.25.7 1.95 1.1 5.05.3 1.45 1.35 3.65l-1.55-1.45.4 2.4q.45 3.1 1.75 5.5l-2.7-1.35.1 1.7-.1 1.05-1.65-5.15-.9 1.55q.1-5.55-1.75-7.1l-.8 2.9q-1.75-6.5-4-8.45-.8-.75-1.65-.65l-1.2.1.5 1.1q.85 1.9 1.15 4.5.3 2.35-.05 3.2-1.1-3.8-3.05-5.75l-1.8-1.3.5 5.55-.2 3.3q-1.45-7.7-7.8-11.15l-.4 1.45q-.9 2.25-1.5 6.85l-1.1-3.25-.75-1.75-.9 1.7q-1.1 3.2-1.4 8.05l-1.2-4.75-.35-2.55-1.25 2.25-1.15 3.45q-.8-2.35-1.1-6l-.05-1.1-1 1.2q-.55.1-1.25 1.05l1.7-4.45.5-.8-.85-.4q-1.8-.9-3.55 1.1-2.7 3.15-3.05 12.45l-.6-.8-.6 2.85-.2-2.4-1.35 2.65-2.2 3.75.6-4.4-3.45 3.55q.75-2.15 1.05-4.9l.15-2.55v-1.2l-1.15.4-.8.15q1.25-1.4 4.45-9.55 1.65-4.25 5.3-5.05l6 .3.7.1.25-.7q1.05-3.35 5.2-4.5 2.85-.75 4.2.55l.5.4.5-.3q2.55-1.5 5.1-.8 2.95.8 4.9 4.1l.3.6.7-.2 3.45-1.35q1.9-.6 3.65.35" fill="#591c6d" fill-rule="evenodd" id="k"/><path d="m48.6 13.5.4 1.3-2.45-4.95 2.6 10.25-2-4.5.65 5.55-.9-2.8-.55.9q-.2-2.7-1.1-4.4l-.85-1.2-.65-.3-.5 1.7q-1.6-5.1-3.6-6.9-1-.85-2.05-.75l-3.25-.65q2.45.65 2.8 5.75-.45-1.1-1.35-1.55-1.35-.7-2.05-1.4l-2.7-2.2Q33 9.6 32.75 14.6q-.65-1.3-3.15-3.9l-2.45-2.45-1.7-1.9-.7 2.45q-.6 1.15-1.15 4.4l-.35-1.25-1.2-3-1.55 3.35-1.1 5.2-.4-1.8-.4-5.25q-2.25 2.85-3.15 7-.45-1.85-.45-4.3l.1-2.05-1.75 1.4 1.1-2.55 1.95-2.8-2.5.8q-2.5-1.2-4.3.9Q8.65 10 6.5 16.4q-2.35 7.05-3.55 9.2l.65-4.95-3 4.6 2.4-9.6-3 2.45 3.45-8.35q1.7-4.3 5.1-4.9l5.6.5.85.75 2.2-1.3-1.6.15q1-1.7 3.65-2.9-2.95 1.05-2.5.5 1.55-1.7 3.8-2.3 2.55-.65 3.7.4l.75.7 1.4-.8 3.9-.1q2.85.75 4.85 3.35l1.6.8q3.5-1.2 6.3.35 4.05 2.3 5.55 8.55" fill="#76428d" fill-rule="evenodd" id="l"/><path d="M5.9 0q.15.3 2.15.75-.45.4.8.7l1.4.2-2.1.25q-.05.3 1.55.95l-.75-.15-1.65.15 1.45 1-1.15-.3Q6.4 3.3 6 3.8q-1.6.05-2.45 1.3L3 6.35q-.75-1.2-3 .3.4-.7 2.6-1.85l2.15-.95-1.4-.15.6-.45q.9-.5 2.3-.65L2.9 2.15Q7.45.95 4.65.55 5.5.65 5.9 0" fill="#591c6d" fill-rule="evenodd" id="p"/><g id="m" fill="#b7a3c5" fill-rule="evenodd"><path d="m28.05 4.85.85.5-.75-.65q-1.35-.4-1.85-.85 1.85-.1 3.95.75 4.45 2.9 5.65 6.95-1.55-4-7.5-6.15 1.85 1.65 2.3 6.05-.75-1.85-3.35-4.5t-3.1-2L22.6 10.6l-.9-2q.25-3.05 2.9-3.9l3.45.15M28.2 1l-.25.1L25 1l1.35-.6 4.55.25q-1.15-.2-2.7.35m6.2 2.4v.4q-3.35-2.1-5.5-1.5-1.65-.25-1.95-.55l.85-.25 1.7-.15q3.05.2 4.9 2.05m-4-.3 1.75.7q2.9 1.15 2.95 1.6l-3.4-.95q-1.55-.7-4.1-1.45l-.1-.05 2.9.15m-8.55 2q-3 1.4-3.5 2.3l-.55 1q-2.6 2.15-3.25 7.8-.85-4.45 1.4-7.45 1.1-1.5 2.4-2.1-2.95 1.2-4.8 3.7 1.9-4.05 6.45-5.6-1.4-.5-5.65 1.55 1.5-2.15 5.4-3.1h1.6l2.25.25-2.55 1.15-.65.55 1.45-.05m1.55-3.3-2 .9-1.05.25q-3.05.1-5.2 1.1 2-2.65 6.65-2.8l1.6.55m-1.2-.55-4.45-.4Q20.9-.9 23.95.9l-1.75.35M21.45 8l-.2-.6q-1.6 2.5-2.35 5l-.4 2q-.6-5.4.3-6.6 1.9-1.3 2.55-.4l.1.6M8.4 5.05q.5-.25-.05 1l.4 1-1.45 2.8q-1.4 2.8-1.65 4.55.25-4 1-5.25-2.9 4.25-4 8.35Q1.5 22.05 0 24q1.9-4.95 3-10.45.45-1.15-2.9 2.95l3.75-8.65q.7-1.2 2.3-1.9l2.25-.9"/><path d="m2.65 21.85 1-4.6.85-1.6q.5-.7.25.45-.4 1.75-2.1 5.75M43.35 5.8q2.8 3.35 3.65 10.6-1.35-8-4.5-10.25 1.9 2.6 2.5 6.5-.7-2.25-2.35-4.35l-1.5-1.65.75 3.85q-2.15-4.25-2.15-4.6l1.15-.75-.6-.4q-.5-.5-.15-.75 1.1-.75 3.2 1.8"/><path d="M45.35 17.9q-.45-3.4-.35-4.35 1-.25.35 4.35"/></g></defs></svg>

<?xml version="1.0" encoding="UTF-8" standalone="no"?>
<svg xmlns:xlink="http://www.w3.org/1999/xlink" height="92.9px" width="100.7px" xmlns="http://www.w3.org/2000/svg">
  <g transform="matrix(1.0, 0.0, 0.0, 1.0, 38.65, 49.75)">
    <use height="32.55" transform="matrix(1.0, 0.0, 0.0, 1.0, -29.65, -4.35)" width="57.6" xlink:href="#sprite0"/>
    <use height="28.7" transform="matrix(1.0, 0.0, 0.0, 1.0, -26.95, -3.5)" width="52.6" xlink:href="#sprite1"/>
    <use height="25.6" transform="matrix(1.0, 0.0, 0.0, 1.0, -25.45, -2.85)" width="49.15" xlink:href="#sprite2"/>
    <use height="24.0" transform="matrix(1.0, 0.0, 0.0, 1.0, -24.6, -2.05)" width="47.0" xlink:href="#sprite3"/>
    <use height="19.2" transform="matrix(1.0, 0.0, 0.0, 1.0, -15.55, -8.15)" width="35.6" xlink:href="#sprite4"/>
    <use height="17.5" transform="matrix(1.0, 0.0, 0.0, 1.0, -14.7, -7.3)" width="34.0" xlink:href="#sprite5"/>
    <use height="6.65" transform="matrix(1.0, 0.0, 0.0, 1.0, -6.0, -1.15)" width="10.25" xlink:href="#sprite6"/>
    <use height="13.75" transform="matrix(1.0, 0.0, 0.0, 1.0, 11.55, -4.4)" width="4.75" xlink:href="#sprite7"/>
    <use height="17.05" transform="matrix(1.0, 0.0, 0.0, 1.0, -14.45, -7.2)" width="33.15" xlink:href="#sprite8"/>
  </g>
  <defs>
    <g id="sprite0" transform="matrix(1.0, 0.0, 0.0, 1.0, 0.0, 0.0)">
      <use height="32.55" transform="matrix(1.0, 0.0, 0.0, 1.0, 0.0, 0.0)" width="57.6" xlink:href="#shape0"/>
    </g>
    <g id="shape0" transform="matrix(1.0, 0.0, 0.0, 1.0, 0.0, 0.0)">
      <path d="M43.25 15.6 Q43.35 18.75 42.25 20.8 41.9 18.6 40.1 15.7 L38.4 13.25 Q39.8 16.25 38.2 23.85 36.7 17.2 33.7 13.55 L30.5 10.7 Q29.2 14.25 28.7 20.7 L26.25 14.25 Q24.65 18.8 24.85 25.7 23.55 23.65 22.65 20.35 L22.05 17.4 21.45 18.8 Q20.8 20.65 20.5 23.05 19.25 21.6 18.6 18.35 L18.2 15.35 Q17.15 15.65 15.85 19.3 15.3 16.7 16.45 13.45 L17.7 10.7 Q16.45 10.1 15.15 11.6 13.35 13.75 12.65 20.2 12.3 23.4 12.3 26.2 L11.3 24.75 10.2 30.75 9.5 26.2 Q6.95 31.25 4.95 32.55 L5.95 27.4 Q4.95 29.4 1.1 31.65 4.05 28.5 4.05 21.25 L0.0 21.95 Q3.0 20.45 6.55 10.75 8.25 6.2 12.15 5.25 L18.8 5.45 Q19.8 2.15 23.75 0.65 27.6 -0.75 29.6 1.1 32.75 -0.7 35.9 0.4 38.85 1.45 40.75 4.75 50.5 -1.15 54.4 14.65 55.1 17.7 57.6 21.45 57.0 21.55 54.6 19.3 55.3 23.95 57.3 26.2 56.8 26.7 53.75 25.05 53.9 26.7 52.85 29.3 L50.95 23.25 49.2 26.2 Q49.65 24.1 49.2 20.75 L48.6 17.8 Q48.7 19.4 47.5 22.05 47.4 19.4 45.6 14.95 43.65 10.15 42.15 10.3 43.15 12.6 43.25 15.6" fill="#000000" fill-rule="evenodd" stroke="none"/>
    </g>
    <g id="sprite1" transform="matrix(1.0, 0.0, 0.0, 1.0, 0.0, 0.0)">
      <use height="28.7" transform="matrix(1.0, 0.0, 0.0, 1.0, 0.0, 0.0)" width="52.6" xlink:href="#shape1"/>
    </g>
    <g id="shape1" transform="matrix(1.0, 0.0, 0.0, 1.0, 0.0, 0.0)">
      <path d="M45.2 3.7 Q48.3 5.35 49.55 8.95 50.25 10.9 50.65 14.0 50.95 15.45 52.0 17.65 L50.45 16.2 50.85 18.6 Q51.3 21.7 52.6 24.1 L49.9 22.75 50.0 24.45 49.9 25.5 48.25 20.35 47.35 21.9 Q47.45 16.35 45.6 14.8 L44.8 17.7 Q43.05 11.2 40.8 9.25 40.0 8.5 39.15 8.6 L37.95 8.7 38.45 9.8 Q39.3 11.7 39.6 14.3 39.9 16.65 39.55 17.5 38.45 13.7 36.5 11.75 L34.7 10.45 35.2 16.0 35.0 19.3 Q33.55 11.6 27.2 8.15 L26.8 9.6 Q25.9 11.85 25.3 16.45 L24.2 13.2 23.45 11.45 22.55 13.15 Q21.45 16.35 21.15 21.2 L19.95 16.45 19.6 13.9 18.35 16.15 17.2 19.6 Q16.4 17.25 16.1 13.6 L16.05 12.5 15.05 13.7 Q14.5 13.8 13.8 14.75 L15.5 10.3 16.0 9.5 15.15 9.1 Q13.35 8.2 11.6 10.2 8.9 13.35 8.55 22.65 L7.95 21.85 7.35 24.7 7.15 22.3 5.8 24.95 3.6 28.7 4.2 24.3 0.75 27.85 Q1.5 25.7 1.8 22.95 L1.95 20.4 1.95 19.2 0.8 19.6 0.0 19.75 Q1.25 18.35 4.45 10.2 6.1 5.95 9.75 5.15 L15.75 5.45 16.45 5.55 16.7 4.85 Q17.75 1.5 21.9 0.35 24.75 -0.4 26.1 0.9 L26.6 1.3 27.1 1.0 Q29.65 -0.5 32.2 0.2 35.15 1.0 37.1 4.3 L37.4 4.9 38.1 4.7 41.55 3.35 Q43.45 2.75 45.2 3.7" fill="#591c6d" fill-rule="evenodd" stroke="none"/>
    </g>
    <g id="sprite2" transform="matrix(1.0, 0.0, 0.0, 1.0, 0.0, 0.0)">
      <use height="25.6" transform="matrix(1.0, 0.0, 0.0, 1.0, 0.0, 0.0)" width="49.15" xlink:href="#shape2"/>
    </g>
    <g id="shape2" transform="matrix(1.0, 0.0, 0.0, 1.0, 0.0, 0.0)">
      <path d="M48.6 13.5 L49.0 14.8 46.55 9.85 49.15 20.1 47.15 15.6 47.8 21.15 46.9 18.35 46.35 19.25 Q46.15 16.55 45.25 14.85 L44.4 13.65 43.75 13.35 43.25 15.05 Q41.65 9.95 39.65 8.15 38.65 7.3 37.6 7.4 L34.35 6.75 Q36.8 7.4 37.15 12.5 36.7 11.4 35.8 10.95 34.45 10.25 33.75 9.55 L31.05 7.35 Q33.0 9.6 32.75 14.6 32.1 13.3 29.6 10.7 L27.15 8.25 25.45 6.35 24.75 8.8 Q24.15 9.95 23.6 13.2 L23.25 11.95 22.05 8.95 20.5 12.3 19.4 17.5 19.0 15.7 18.6 10.45 Q16.35 13.3 15.45 17.45 15.0 15.6 15.0 13.15 L15.1 11.1 13.35 12.5 14.45 9.95 16.4 7.15 13.9 7.95 Q11.4 6.75 9.6 8.85 8.65 10.0 6.5 16.4 4.15 23.45 2.95 25.6 L3.6 20.65 0.6 25.25 3.0 15.65 0.0 18.1 3.45 9.75 Q5.15 5.45 8.55 4.85 L14.15 5.35 15.0 6.1 17.2 4.8 15.6 4.95 Q16.6 3.25 19.25 2.05 16.3 3.1 16.75 2.55 18.3 0.85 20.55 0.25 23.1 -0.4 24.25 0.65 L25.0 1.35 26.4 0.55 30.3 0.45 Q33.15 1.2 35.15 3.8 L36.75 4.6 Q40.25 3.4 43.05 4.95 47.1 7.25 48.6 13.5" fill="#76428d" fill-rule="evenodd" stroke="none"/>
    </g>
    <g id="sprite3" transform="matrix(1.0, 0.0, 0.0, 1.0, 0.0, 0.0)">
      <use height="24.0" transform="matrix(1.0, 0.0, 0.0, 1.0, 0.0, 0.0)" width="47.0" xlink:href="#shape3"/>
    </g>
    <g id="shape3" transform="matrix(1.0, 0.0, 0.0, 1.0, 0.0, 0.0)">
      <path d="M28.05 4.85 L28.9 5.35 28.15 4.7 Q26.8 4.3 26.3 3.85 28.15 3.75 30.25 4.6 34.7 7.5 35.9 11.55 34.35 7.55 28.4 5.4 30.25 7.05 30.7 11.45 29.95 9.6 27.35 6.95 24.75 4.3 24.25 4.95 L22.6 10.6 21.7 8.6 Q21.95 5.55 24.6 4.7 L28.05 4.85 M28.2 1.0 L27.95 1.1 25.0 1.0 26.35 0.4 30.9 0.65 Q29.75 0.45 28.2 1.0 M34.4 3.4 L34.4 3.8 Q31.05 1.7 28.9 2.3 27.25 2.05 26.95 1.75 L27.8 1.5 29.5 1.35 Q32.55 1.55 34.4 3.4 M30.4 3.1 L32.15 3.8 Q35.05 4.95 35.1 5.4 L31.7 4.45 Q30.15 3.75 27.6 3.0 L27.5 2.95 30.4 3.1 M21.85 5.1 Q18.85 6.5 18.35 7.4 L17.8 8.4 Q15.2 10.55 14.55 16.2 13.7 11.75 15.95 8.75 17.05 7.25 18.35 6.65 15.4 7.85 13.55 10.35 15.45 6.3 20.0 4.75 18.6 4.25 14.35 6.3 15.85 4.15 19.75 3.2 L21.35 3.2 23.6 3.45 21.05 4.6 20.4 5.15 21.85 5.1 M23.4 1.8 L21.4 2.7 20.35 2.95 Q17.3 3.05 15.15 4.05 17.15 1.4 21.8 1.25 L23.4 1.8 M22.2 1.25 L17.75 0.85 Q20.9 -0.9 23.95 0.9 L22.2 1.25 M21.45 8.0 L21.25 7.4 Q19.65 9.9 18.9 12.4 L18.5 14.4 Q17.9 9.0 18.8 7.8 20.7 6.5 21.35 7.4 L21.45 8.0" fill="#b7a3c5" fill-rule="evenodd" stroke="none"/>
      <path d="M8.4 5.05 Q8.9 4.8 8.35 6.05 L8.75 7.05 7.3 9.85 Q5.9 12.65 5.65 14.4 5.9 10.4 6.65 9.15 3.75 13.4 2.65 17.5 1.5 22.05 0.0 24.0 1.9 19.05 3.0 13.55 3.45 12.4 0.1 16.5 L3.85 7.85 Q4.55 6.65 6.15 5.95 L8.4 5.05" fill="#b7a3c5" fill-rule="evenodd" stroke="none"/>
      <path d="M2.65 21.85 L3.65 17.25 4.5 15.65 Q5.0 14.95 4.75 16.1 4.35 17.85 2.65 21.85" fill="#b7a3c5" fill-rule="evenodd" stroke="none"/>
      <path d="M43.35 5.8 Q46.15 9.15 47.0 16.4 45.65 8.4 42.5 6.15 44.4 8.75 45.0 12.65 44.3 10.4 42.65 8.3 L41.15 6.65 41.9 10.5 Q39.75 6.25 39.75 5.9 L40.9 5.15 40.3 4.75 Q39.8 4.25 40.15 4.0 41.25 3.25 43.35 5.8" fill="#b7a3c5" fill-rule="evenodd" stroke="none"/>
      <path d="M45.35 17.9 Q44.9 14.5 45.0 13.55 46.0 13.3 45.35 17.9" fill="#b7a3c5" fill-rule="evenodd" stroke="none"/>
    </g>
    <g id="sprite4" transform="matrix(1.0, 0.0, 0.0, 1.0, 0.0, 0.0)">
      <use height="19.2" transform="matrix(1.0, 0.0, 0.0, 1.0, 0.0, 0.0)" width="35.6" xlink:href="#shape4"/>
    </g>
    <g id="shape4" transform="matrix(1.0, 0.0, 0.0, 1.0, 0.0, 0.0)">
      <path d="M1.15 8.9 Q1.65 8.05 2.95 7.85 L5.0 8.1 Q6.15 8.7 5.65 9.8 5.25 10.65 5.05 12.95 4.9 15.25 4.15 15.7 2.5 16.95 0.7 15.35 0.0 14.7 0.0 13.35 0.0 10.65 1.15 8.9" fill="#000000" fill-rule="evenodd" stroke="none"/>
      <path d="M30.45 0.95 Q32.45 2.55 32.45 4.6 L32.4 5.05 31.5 7.35 Q30.6 9.15 30.6 9.85 L32.35 10.15 Q34.4 10.25 35.0 10.85 35.6 11.55 35.6 13.0 35.6 15.7 34.4 17.65 33.15 19.65 31.3 19.05 29.1 18.35 26.85 13.25 24.85 8.85 24.85 6.95 24.85 1.15 27.35 0.15 28.95 -0.35 30.45 0.95" fill="#000000" fill-rule="evenodd" stroke="none"/>
    </g>
    <g id="sprite5" transform="matrix(1.0, 0.0, 0.0, 1.0, 0.0, 0.0)">
      <use height="17.5" transform="matrix(1.0, 0.0, 0.0, 1.0, 0.0, 0.0)" width="34.0" xlink:href="#shape5"/>
    </g>
    <g id="shape5" transform="matrix(1.0, 0.0, 0.0, 1.0, 0.0, 0.0)">
      <path d="M4.05 8.6 Q3.6 9.65 3.4 11.95 3.2 13.9 2.85 14.15 1.65 14.95 0.4 13.85 -0.2 13.3 0.15 11.25 0.45 9.45 1.0 8.5 1.45 7.75 2.9 7.8 4.4 7.85 4.05 8.6" fill="#e42824" fill-rule="evenodd" stroke="none"/>
      <path d="M31.35 10.15 Q33.1 10.2 33.55 10.65 34.45 11.5 33.5 14.7 32.6 18.0 30.75 17.4 28.9 16.8 26.75 12.1 24.85 7.85 24.85 6.1 24.85 0.9 26.8 0.1 28.1 -0.4 29.55 1.25 31.0 2.85 30.75 4.05 L29.55 6.8 Q28.65 8.65 28.9 9.5 29.55 10.1 31.35 10.15" fill="#e42824" fill-rule="evenodd" stroke="none"/>
    </g>
    <g id="sprite6" transform="matrix(1.0, 0.0, 0.0, 1.0, 0.0, 0.0)">
      <use height="6.65" transform="matrix(1.0, 0.0, 0.0, 1.0, 0.0, 0.0)" width="10.25" xlink:href="#shape6"/>
    </g>
    <g id="shape6" transform="matrix(1.0, 0.0, 0.0, 1.0, 0.0, 0.0)">
      <path d="M5.9 0.0 Q6.05 0.3 8.05 0.75 7.6 1.15 8.85 1.45 L10.25 1.65 8.15 1.9 Q8.1 2.2 9.7 2.85 L8.95 2.7 7.3 2.85 8.75 3.85 7.6 3.55 Q6.4 3.3 6.0 3.8 4.4 3.85 3.55 5.1 L3.0 6.35 Q2.25 5.15 0.0 6.65 0.4 5.95 2.6 4.8 L4.75 3.85 3.35 3.7 3.95 3.25 Q4.85 2.75 6.25 2.6 L2.9 2.15 Q7.45 0.95 4.65 0.55 5.5 0.65 5.9 0.0" fill="#591c6d" fill-rule="evenodd" stroke="none"/>
    </g>
    <g id="sprite7" transform="matrix(1.0, 0.0, 0.0, 1.0, 0.0, 0.0)">
      <use height="13.75" transform="matrix(1.0, 0.0, 0.0, 1.0, 0.0, 0.0)" width="4.75" xlink:href="#shape7"/>
    </g>
    <g id="shape7" transform="matrix(1.0, 0.0, 0.0, 1.0, 0.0, 0.0)">
      <path d="M1.6 9.15 L3.15 9.9 Q4.7 10.8 4.75 11.4 4.9 14.55 4.0 13.5 2.15 11.5 1.6 9.15" fill="#9d0d00" fill-rule="evenodd" stroke="none"/>
      <path d="M0.85 7.15 L0.15 4.55 Q-0.35 1.75 0.6 0.7 2.4 -1.25 1.9 2.35 1.2 6.65 0.85 7.15" fill="#9d0d00" fill-rule="evenodd" stroke="none"/>
      <path d="M1.6 7.5 Q1.5 7.1 3.0 3.25 2.2 5.95 2.7 7.25 L3.1 8.05 Q1.9 8.6 1.6 7.5" fill="#9d0d00" fill-rule="evenodd" stroke="none"/>
    </g>
    <g id="sprite8" transform="matrix(1.0, 0.0, 0.0, 1.0, 0.0, 0.0)">
      <use height="17.05" transform="matrix(1.0, 0.0, 0.0, 1.0, 0.0, 0.0)" width="33.15" xlink:href="#shape8"/>
    </g>
    <g id="shape8" transform="matrix(1.0, 0.0, 0.0, 1.0, 0.0, 0.0)">
      <path d="M29.05 2.05 Q29.45 2.9 28.25 7.35 29.65 1.5 26.9 2.55 25.1 3.25 25.5 6.95 25.75 8.8 26.3 10.5 24.25 8.5 24.4 6.3 24.75 2.2 25.5 0.95 25.95 0.25 27.15 0.0 28.0 -0.2 29.05 2.05" fill="#f29ea7" fill-rule="evenodd" stroke="none"/>
      <path d="M27.95 11.15 L31.45 11.95 Q32.45 12.2 32.65 10.55 L33.05 12.65 Q33.4 14.15 32.7 15.6 32.0 17.0 31.0 17.05 31.85 16.8 32.2 15.8 32.6 14.75 31.75 13.9 L27.95 11.15" fill="#f29ea7" fill-rule="evenodd" stroke="none"/>
      <path d="M3.6 8.1 Q3.3 9.0 2.75 9.1 1.9 9.25 1.5 9.65 0.95 10.2 0.45 11.8 0.1 12.85 0.05 12.3 -0.15 11.15 1.05 8.35 1.35 7.75 2.5 7.85 L3.6 8.1" fill="#f29ea7" fill-rule="evenodd" stroke="none"/>
    </g>
  </defs>
</svg>
